X: 39714
T: Terry Teehan's
R: reel
M: 4/4
K: Gdorian
d4 d3e|fdcA FGAc|Addc d2de|fdcA G3c|
d4 d3e|fdcA FGAc|dggf dcAG|FGGF G2Ac|
dgga baga|f2df cFAc|dgga baga|fdcA G2Ac|
dgga baga|f2df cFAc|dggf dcAG|FGGF G2Ac|

